X:1
T:Cosi per ben
T:Cosi per ben
T:Sigismondo d'India
T:Source : Le Musische a 2 voci di S.d'India---Libro II---Venetia---R.Amadino---1615. Editor :André Vierendeels ( 02/08/15).
T:Aria (part 4)
C:Sigismondo d'India
%%score [ 1 2 ] 3
L:1/8
Q:1/4=72
M:4/4
K:F
V:1 treble nm="Soprano 1" snm="S 1"
V:2 treble nm="Soprano 2" snm="S 2"
V:3 bass nm="MusicXML Part"
V:1
 z8 | z2 G2 c4- | c2 B2 A2 G2 | A4 c4- | c2 B2 _e4- | e2 BA A4 | A4 d4- | d2 c2 c2 BA | %8
w: |Co- si|_ per ben a-|mar por-|* to, por-|* to tor- men-|to, ve-|* go'in o- dio'a me|
 B4 F/G/A/B/ c/d/e/f/ | g4 gf/e/ d/c/B/A/ | B2 d/e/f/B/ c4 | B8 | z fed c2 c2- | ccBA G4 | %14
w: stes- so'a _ _ _ _ _ _ _|mil- le'a _ _ _ _ _ _|mil- * * * * *|le,|sen- * * * to|_ dop- piar nel cor|
 G3 A/B/ E3 F/G/ | D2 d3 e/f/ B2- | Bc/d/ G4 ^F2 | G8 | z dcB c EFG | AF GA BG AB | cA Bc dc de | %21
w: vi- * * ve _ _|_ fa- * * vil-||le,|sen _ _ so dop- * *|piar _ _ _ nel _ _ _|cor _ _ _ vi- * * *|
 f/d/e/f/ g2 z2 f/e/d/c/ | B2 _e/d/c/B/ A4 | G8 | Bc/d/ _e4 dd | c/F/G/A/ B/c/d/e/ f4- | f2 e2 d4 | %27
w: ve _ _ _ _ fa- * * *|* vil- * * * *|le,|sen- * * * to dop-|piar _ _ _ _ _ _ _ _|_ _ nel|
 c6 d_e | G6 ^F2 | G8 |] %30
w: cor, vi- ve|fa- vil-|le.|
V:2
 z4 z2 D2 | G6 F2 | E2 D2 E4 | c6 A2 | d6 cB | G8 | ^F4 z4 | _e6 d2 | d2 cB c4 | %9
w: Co-|si per|ben a- mar|por- to,|por- tor- *|men-|to,|ven- go'in|o- dio'a me stes|
 E/F/G/A/ B/c/d/e/ f4 | de/f/ B4 A2 | B8 | z4 z fed | c2 d3 dcB | c2 G3 A/B/ G2- | %15
w: so'a _ _ _ _ _ _ _ mil-|le'a _ _ mil- *|le,|sen- * *|* to dop- piar nel|cor vi- * * ve|
 GA/B/ D2 d3 e/f/ | B3 c/d/ A4 | G8 | z4 z dcB | cA Bc dB cd | _ec de f2 g2 | z2 f/e/d/c/ B2 _e2 | %22
w: _ _ _ _ fa- * *|vil- * * *|le,|sen _ _|to dop- * * piar _ _ _|_ _ _ _ nel cor|vi- * * * * ve|
 d/c/B/A/ G4 ^F2 | G8 |"^b" z4 cd/e/ f2- | f2 cc d/G/A/B/ c/d/e/f/ | g4 ^f2 g2- | %27
w: fa- * * * vil- *|le,||* to dop- piar _ _ _ _ _ _ _|_ nel cor|
"^-natural" g2 f2 e2 d2- | d2 ef A4 | G8 |] %30
w: _ vi- ve, vi-|* ve fa- vil-|le.|
V:3
 z4 G,4- | G,2 F,2 E,2 D,2 | C,6 B,,2 | A,,2 G,,2 F,,2 F,2- | F,2 D,2 _E,4 | D,6 D,2 | %6
 D,2 C,2 B,,2 B,2- | B,2 A,2 G,2 F,2 | _E,6 D,2 | C,4 D,4 | B,,4 F,4 | B,,6 C,2 | D,2 E,2 F,4- | %13
 F,2 F,2 F,2 E,D, | C,6 C,2- | C,2 B,,A,, G,,2 A,,2 |"^b" B,,2 C,2 D,4 | G,,6 A,,2 | %18
 B,,2 G,,2 F,,2 F,2- | F,2 E,2 D,4 | C,6 B,,2 | A,,2 G,,4 A,,2 | B,,2 C,2 D,4 | G,,6 A,,2 | %24
 B,,2 G,,2 F,,2 F,2- | F,2 E,2 D,4 | C,6 B,,2 | A,,4 G,,2 A,,2 | B,,2 C,2 D,4 | G,,8 |] %30

